X: 19212
T: Isle Of Aigas, The
R: waltz
M: 3/4
K: Fdorian
cd|e2 c2 G2|G4 GF|E2 G3 D|(C4 C)B,|C2 F3 E|
F4 G>A|G6|c4 cd|e2 c2 G2|G4 EF|
G2 c3 e|d4 e>d|c2G2E2|F4 EF/E/|D6|C4||
G>G|c2 d3 e|d4 c2|g2 f2 d2|c4 G>G|c2 d3 e|
d4 c2|G6|c3 G,CD|E2 F2 G2|G4 G2|
c2 d3 e|d4 e>d|c2 G3 E|F4 E2|D6|C6||

